X:1
T:Sonata Facile
T:Köchel No. 545
T:arr. Kelvin Olaiya.
%%score { ( 1 3 ) | ( 2 4 ) }
L:1/8
Q:1/4=141
M:4/4
K:C
V:1 treble nm="16 "
V:3 treble 
V:2 treble 
V:4 treble 
V:1
!mf!"^Movement I\nAllegro" c4 e2 g2 | (B3 c/d/ c2) z2 | a4 g2 c'2 | g2 (Tfe/f/) e2 z2 | %4
 AB/c/ d/e/f/g/ a/g/f/e/ d/c/B/A/ | GA/B/ c/d/e/f/ g/f/e/d/ c/B/A/G/ | %6
 FG/A/ B/c/d/e/ f/e/d/c/ B/A/G/F/ | EF/G/ A/B/c/d/ e/d/c/B/ A/G/F/E/ | %8
 DE/F/ G/A/B/^c/ d/A/B/c/ d/e/f/g/ | a/b/c'/b/ a/g/f/e/ f/g/a/g/ f/e/d/c/ | Bgec dgec | %11
 d2 [Bdg]2 G2 z2 | z8 | (d'b) (g3 a/b/ a).g | (Tg>^f) f2 z4 | (d'b) (g3 a/b/ a).g | (Tg>^f) f2 z4 | %17
 d'2 z/ d'/b/g/ e2 z/ e/g/e/ | c'2 z/ c'/a/^f/ d2 z/ d/f/d/ | b2 z/ b/g/e/ c2 z/ c/e/c/ | %20
 a2 z/ a/^f/c/ B2 z/ g/d/B/ | A4{/B} c2{/^d} e2 | a3 b/4a/4^g/4a/4 (c'a)(c'a) | bg d'4 c'/b/a/g/ | %24
 !trill(!Ta8 | g2 g/d/g/b/ d'/b/g/b/ c'/a/^f/a/ | g2 G/D/G/B/ d/B/G/B/ c/A/^F/A/ | %27
 G2 [db]2 [Bg]2 z2 :: G2 g/d/g/_b/ d'/b/g/b/ c'/a/^f/a/ | g2 G/D/G/_B/ d/B/G/B/ c/A/^F/A/ | %30
 G2 z2 z/ g/_b/a/ g/=f/e/d/ | ^c2 z2 z/ _d'/e'/=d'/ ^c'/_b/a/g/ | f2 d/A/d/f/ a/f/d/f/ g/e/^c/e/ | %33
 d2 D/A,/D/F/ A/F/D/F/ G/E/^C/E/ | z/ D/E/F/ G/A/B/^c/ d2 z2 | z/ B/c/d/ e/^f/^g/a/ b2 z2 | %36
 z/ a/e'/d'/ c'/b/a/g/ f2 z2 | z/ f/d'/c'/ b/a/g/f/ e2 z2 | z/ f/c'/b/ a/g/f/e/ d2 z2 | %39
 z/ e/b/a/ ^g/f/e/d/ c2 z2 | z/ _B/d/c/ B/A/G/F/ E/F/G/A/ B/c/d/e/ | f4 a2 c'2 | (e3 f/g/ f2) z2 | %43
 d'4 c'2 f'2 | c'2 (T_ba/b/ a2) z2 | de/f/ g/a/_b/c'/ d'/c'/b/a/ g/f/e/d/ | %46
 cd/e/ f/g/a/_b/ c'/b/a/g/ f/e/d/c/ | _Bc/d/ e/f/g/a/ _b/a/g/f/ e/d/c/B/ | %48
 A_B/c/ d/e/f/g/ a/g/f/e/ d/c/B/A/ | a2 z2 z2 [ca]2 | [cg]2 z2 z2 [cg]2 | [cf]2 z2 z2 [=Bf]2 | %52
 [ce]2 z2 z2 [ce]2 | d/D/E/F/ G/A/B/^c/ d/A/B/c/ d/e/f/g/ | a/b/c'/b/ a/g/f/e/ f/g/a/g/ f/e/d/c/ | %55
 Bgec dgec | d2 [Bdg]2 G2 z2 | z8 | (ge) (c3 d/e/ d).c | (Tc>B) B2 z4 | (ge) (c3 d/e/ d)c | %61
 (Tc>B) B2 z4 | g2 z/ g/e/c/ A2 z/ A/c/A/ | f2 z/ f/d/B/ G2 z/ g/b/g/ | %64
 e'2 z/ e'/c'/a/ f2 z/ f/a/f/ | d'2 z/ d'/b/g/ e2 z/ c'/g/e/ | d4{/^c} d2{/c} d2 | %67
 a4{/^g} a2{/g} a2 | ga/b/ c'/d'/e'/d'/ c'/b/a/g/ f/e/d/c/ | !trill(!Td8 | %70
 c2 c/G/c/e/ g/e/c/e/ f/d/B/d/ | c2 C/G,/C/E/ G/E/C/E/ F/D/B,/D/ | C2 [egc']2 c2 z2 :: %73
[K:G][M:3/4]!p![Q:1/4=60]"^Movement II\nAndante" (!1!B4 d/c/B/c/) | (!4!d>B) G2 z2 | %75
 (!3!g3 !5!a/g/ f/e/d/!3!^c/) | d>B G2 z2 | !5!c>A .F.A .!1!B.c | (d>B) g2 z2 | %79
 (!4!a/g/f/g/ f/e/!2!^d/e/ =d/c/!2!B/c/) | (B3/2c/4B/4 A)(!4!d ^c!1!=c) | %81
 !2!B2- (B/G/B/d/ !2!c/A/c/e/) | (!3!d>B) .!2!G/.!1!G/.A/.B/ .!1!c/.d/.e/.f/ | %83
 (g/!2!f/!3!g/f/ a/g/f/g/ f/e/!3!d/^c/) | (d/B/!4!d/!2!B/) G2 z2 | %85
 (!5!c/A/c/A/) .F/(A/^G/!1!A/ ^A/!1!B/c/^c/) | (d/!1!B/!2!d/B/) g2 z/ (!5!b/!3!f/g/) | %87
 (^d/e/c/!2!A/) G>!3!G (B/A/G/A/) |!mf! ([FA]2!p! G2) z2 ::!p! d2 d/^c/e/d/ g/f/e/d/ | ^c>d e2 z2 | %91
 e2 e/^d/f/e/ a/g/f/e/ | =d>e f2 z2 | f2 f/e/g/f/ b/a/g/f/ | e2 e/^d/f/e/ a/g/f/e/ | %95
 e/d/d d/A/d/f/ f/e/d/e/ | [^ce]2 d/^d/e/d/ f/e/=d/=c/ | !2!B2- (B/G/B/d/ !2!c/A/c/e/) | %98
 (!3!d>B) .!2!G/.!1!G/.A/.B/ .!1!c/.d/.e/.f/ | (g/!2!f/!3!g/f/ a/g/f/g/ f/e/!3!d/^c/) | %100
 (d/B/!4!d/!2!B/) G2 z2 | (!5!c/A/c/A/) .F/(A/^G/!1!A/ ^A/!1!B/c/^c/) | %102
 (d/!1!B/!2!d/B/) g2 z/ (!5!b/!3!f/g/) | (^d/e/c/!2!A/) G>!3!G (B/A/G/A/) | ([FA]2 G2) z2 :| %105
 _B2- B/A/c/B/ B/A/G/F/ | G>_B d2 z2 | d2- d/^c/_e/d/ d/=c/_B/A/ | _B>d g2 z2 | %109
 =f2- f/a/c'/_b/ a/g/f/_e/ | d2- d/g/_b/a/ g/=f/_e/d/ | B/c/_e/g/ B>B d/c/B/c/ | %112
 [Ac]2 _B/A/c/B/ d/c/_e/d/ | =f2- f/_a/g/f/ _e/d/c/B/ | c>_e g2 z2 | g2- g/f/a/g/ _b/^c/b/c/ | %116
 ^c2 d2 z2 | _e2- e/c/a/f/ c'/a/_e'/f/ | d'2- d'/a/_b/f/ g/^c/d/_B/ |!p! _B/A/c/_e/ G>G B/A/G/A/ | %120
 [FA]2 G/F/G/^G/ A/G/A/^A/ | (!1!B4 d/c/B/c/) | (!4!d>B) G2 z2 | (!3!g3 !5!a/g/ f/e/d/!3!^c/) | %124
 d>B G2 z2 | !5!c>A .F.A .!1!B.c | (d>B) g2 z2 | (!4!a/g/f/g/ f/e/!2!^d/e/ =d/c/!2!B/c/) | %128
 (B3/2c/4B/4 A)(!4!d ^c!1!=c) | !2!B2- (B/G/B/d/ !2!c/A/c/e/) | %130
 (!3!d>B) .!2!G/.!1!G/.A/.B/ .!1!c/.d/.e/.f/ | (g/!2!f/!3!g/f/ a/g/f/g/ f/e/!3!d/^c/) | %132
 (d/B/!4!d/!2!B/) G2 z2 | (!5!c/A/c/A/) .F/(A/^G/!1!A/ ^A/!1!B/c/^c/) | %134
 (d/!1!B/!2!d/B/) g2 z/ (!5!b/!3!f/g/) | (^d/e/c/!2!A/) G>!3!G (B/A/G/A/) | %136
 G/F/A/G/ B/A/c/B/ d/c/e/d/ | =f3 g/a/ g/f/e/d/ |!p! ^d2 e2 z/ g/f/e/ | d/B/A/e/ G>G B/A/G/A/ | %140
 G/F/A/G/ B/A/c/B/ d/c/e/d/ | =f3 g/a/ g/f/e/d/ | ^d2 e2 g2 | G3 A/4G/4F/4G/4 BA | %144
 G/D/B/B/ B/G/d/d/ d/B/A/B/ | G/D/B/B/ B/G/d/d/ d/B/A/B/ | G z [B,G] z z2 |: %147
[K:C][M:1/4]!mf![Q:1/4=105]"^Movement III\nRondo" .[eg].[eg] |[M:2/4] [ce] z [df][df] | %149
 [Bd] z c/d/e/c/ | A/B/c/^c/ d/e/f/d/ | c/B/A/G/ [eg][eg] | [ce] z [fa][fa] | [Bd] z a/g/f/e/ | %154
 ^c/d/e/f/ A/=c/B/d/ |[M:1/4] c z :| e/^f/g/g/ |[M:2/4] a/g/^f/e/ .d/.d/.d/.d/ | %158
 e/d/c/B/ e'/d'/c'/b/ | ^g/a/b/c'/ e/^f/=g/a/ | g/^f/e/d/ [bd'][bd'] | [gb] z [ac'][ac'] | %162
 [^fa] z g/a/b/g/ | ^d/e/g/e/ =d/B/c/A/ | G z G/A/B/c/ | d z B/c/d/e/ | f z d/e/f/g/ | %167
 .a._a .g.^f | f z .[eg].[eg] | [ce] z [df][df] | [Bd] z c/d/e/c/ | A/B/c/^c/ d/e/f/d/ | %172
 c/B/A/G/ [eg][eg] | [ce] z [fa][fa] | [Bd] z a/g/f/e/ | ^c/d/e/f/ A/=c/B/d/ | c z z2 | %177
 e/^d/f/e/ z2 | e/^d/f/e/ [ec'][ec'] | [ca] z [db][db] | [B^g] z a/e/c/A/ | c/_B/B/B/ d/^c/c/c/ | %182
 e/d/f/e/ g/f/f/e/ | e/^d/ c'2 =d | e z b/^g/e/d/ | c/e/a/^g/ a/e/c/A/ | ^G/B/e/^g/ b/g/e/d/ | %187
 c/e/a/^g/ a/e/c/A/ | E z [ce][ce] | [Ac] z [Bd][Bd] | [^GB] z z2 | E/^D/F/E/ z2 | %192
 e'/^d'/f'/e'/ =d'/^c'/e'/d'/ | d'/c'/c'/b/ b/a/a/g/ | g/f/f/e/ e/d/d/c/ | _B/f/d/B/ A^G | %196
 A z ^G/d/B/G/ | A z ^G/d/B/G/ | A z ^G/d/B/G/ | A/e/c/A/ B/f/d/B/ | %200
[Q:1/4=44]"^Very slow" !fermata!z2[Q:1/4=105]"^Andante" .[eg].[eg] | [ce] z [df][df] | %202
 [Bd] z c/d/e/c/ | A/B/c/^c/ d/e/f/d/ | c/B/A/G/ [eg][eg] | [ce] z [fa][fa] | [Bd] z a/g/f/e/ | %207
 ^c/d/e/f/ A/=c/B/d/ | c z B/f/d/B/ | a/g/f/e/ d/f/d/B/ | a/g/f/e/ d'/c'/b/a/ | %211
 a/g/.f/.e/ e/d/.c/.B/ | dc B/f/d/B/ | a/g/f/e/ d/f/d/B/ | a/g/f/e/ d'/c'/b/a/ | %215
 a/g/.f/.e/ e/d/.c/.B/ | c/e/G/c/ E/G/C/E/ | G/c/[ce]/[eg]/ [eg]/[df]/.[ce]/.[Bd]/ | %218
 c/e/G/E/ c/E/G/C/ | G/c/[ce]/[eg]/ [eg]/[df]/[ce]/[Bd]/ | c[egc'] [Ec][Ec] | [Ec]2 z2 |] %222
V:2
 CGEG CGEG | DGFG CGEG | CAFA CGEG | B,GDG CGEG | F2 z2 z2[K:bass] [F,C]2 | [E,C]2 z2 z2 [E,C]2 | %6
 [D,C]2 z2 z2 [D,B,]2 | [C,C]2 z2 z2 [C,E,]2 | [F,A,]8 | F,3 G, A,3 ^F, | %10
 G,,/B,,/D,/G,/ G,,/C,/E,/G,/ G,,/B,,/D,/G,/ G,,/C,/E,/G,/ | G,,2 G,2 G,,2 z2 | %12
 ^C/D/C/D/ C/D/C/D/ =C/D/C/D/ C/D/C/D/ | B,/D/B,/D/ B,/D/B,/D/ B,/D/B,/D/ B,/D/B,/D/ | %14
 C/D/B,/D/ A,/D/B,/D/ C/D/B,/D/ C/D/A,/D/ | B,/D/B,/D/ B,/D/B,/D/ B,/D/B,/D/ B,/D/B,/D/ | %16
 C/D/B,/D/ A,/D/B,/D/ C/D/B,/D/ C/D/A,/D/ |[K:treble] z/ B,/D/G/ B2 z/ C/E/G/ c2 | %18
 z/ A,/C/^F/ A2 z/ B,/D/F/ B2 | z/ G,/B,/E/ G2 z/ A,/C/E/ A2 | z/ ^F,/A,/D/ ^F2 z/ G,/B,/D/ G2 | %21
 [CE][CE][CE][CE] [CE][CE][CE][CE] | [CE][CE][CE][CE] [CE][CE][CE][CE] | %23
 D/B/G/B/ D/B/G/B/ D/B/G/B/ D/B/G/B/ | D/c/^F/c/ D/c/F/c/ D/c/F/c/ D/c/F/c/ | [GB]2 z2 z2 [DAc]2 | %26
 [GB]2 z2 z2[K:bass] [D,A,C]2 | [G,B,]2 [G,,G,]2 [G,,G,]2 z2 :: [G,,G,]2 z2 z2[K:treble] [DAc]2 | %29
 [G_B]2 z2 z2[K:bass] [D,A,C]2 | z/ G,,/A,,/_B,,/ C,/D,/E,/^F,/ G,2 z2 | %31
 z/ A,,/B,,/^C,/ D,/E,/^F,/^G,/ A,2 z2 | [D,,D,]2 z2 z2[K:treble] [A,EG]2 | %33
 [DF]2 z2 z2[K:bass] [A,,E,G,]2 | [D,F,]2 z2 z/ D/F/E/ D/C/B,/A,/ | %35
 ^G,2 z2 z/ _A,/B,/=A,/ G,/F,/E,/D,/ | C,2 z2 z/[K:treble] D/A/G/ F/E/D/C/ | %37
 B,2 z2 z/ C/G/F/ E/D/C/B,/ | A,2 z2 z/[K:bass] B,/F/E/ D/C/B,/A,/ | %39
 ^G,2 z2 z/ A,/C/B,/ A,/=G,/F,/E,/ | D,4 [C,G,_B,]4 |[K:treble] FcAc FcAc | Gc_Bc FcAc | %43
 Fd_Bd FcAc | EcGc FcAc | _B2 z2 z2[K:bass] [_B,F]2 | [A,F]2 z2 z2 [A,F]2 | [G,F]2 z2 z2 [G,E]2 | %48
 [F,F]2 z2 z4 | F,G,/A,/ _B,/C/D/E/ F/E/D/C/ B,/A,/G,/F,/ | %50
 E,F,/G,/ A,/B,/C/D/ E/D/C/B,/ A,/G,/F,/E,/ | D,E,/F,/ G,/A,/B,/C/ D/C/B,/A,/ G,/F,/E,/D,/ | %52
 C,D,/E,/ F,/G,/A,/B,/ C/B,/A,/G,/ F,/E,/D,/C,/ | [F,A,]8 | F,3 G, A,3 ^F, | %55
 G,,/B,,/D,/G,/ G,,/C,/E,/G,/ G,,/B,,/D,/G,/ G,,/C,/E,/G,/ | G,,2 G,2 G,,2 z2 | %57
[K:treble] ^F/G/F/G/ F/G/F/G/ =F/G/F/G/ F/G/F/G/ | E/G/E/G/ E/G/E/G/ E/G/E/G/ E/G/E/G/ | %59
 F/G/E/G/ D/G/E/G/ F/G/E/G/ F/G/D/G/ | E/G/E/G/ E/G/E/G/ E/G/E/G/ E/G/E/G/ | %61
 F/G/E/G/ D/G/E/G/ F/G/E/G/ F/G/D/G/ |[K:bass] z/ E,/G,/C/ E2 z/ F,/A,/C/ F2 | %63
 z/ D,/F,/B,/ D2 z/ E,/G,/B,/ E2 |[K:treble] z/ C/E/A/ c2 z/ D/F/A/ d2 | %65
 z/ B,/D/G/ B2 z/ C/E/G/ c2 | z [FA][FA][FA] [FA][FA][FA][FA] | %67
[K:bass] z [^F,C_E][F,CE][F,CE] [F,CE][F,CE][F,CE][F,CE] | %68
 G,/E/C/E/ G,/E/C/E/ G,/E/C/E/ G,/E/C/E/ | G,/F/B,/F/ G,/F/B,/F/ G,/F/B,/F/ G,/F/B,/F/ | %70
 [CE]2 z2 z2 [G,DF]2 | [CE]2 z2 z2 [G,,D,F,]2 | [C,E,]2 C2 [C,,C,]2 z2 :: %73
[K:G][M:3/4] G,/D/B,/D/ G,/D/B,/D/ A,/D/C/D/ | G,/D/B,/D/ G,/D/B,/D/ G,/D/B,/D/ | %75
 G,/E/C/E/ G,/E/C/E/ G,/^C/^A,/C/ | G,/D/B,/D/ G,/D/B,/D/ G,/D/B,/D/ | %77
 A,/D/C/D/ A,/D/C/D/ A,/D/C/D/ | !5!G,/D/!2!B,/D/ E,/!1!B,/!2!G,/B,/ B,,/!1!G,/!4!D,/G,/ | %79
 !3!E,2 G,4 | G,2 F,2 z2 | G,/D/B,/D/ G,/D/B,/D/ A,/D/C/D/ | G,/D/B,/D/ G,/D/B,/D/ G,/D/B,/D/ | %83
 G,/E/C/E/ G,/E/C/E/ G,/^C/^A,/=C/ | G,/D/B,/D/ G,/D/B,/D/ G,/D/B,/D/ | %85
 A,/D/C/D/ A,/D/C/D/ G,/D/C/D/ | G,/D/B,/D/ E,/B,/G,/B,/ B,,/G,/D,/G,/ | %87
 C,/A,/E,/A,/ D,/B,/G,/B,/ D,/C/A,/C/ | G,4 z2 ::[K:treble] D/A/F/A/ D/A/F/A/ D/A/F/A/ | %90
 E/A/G/A/ E/A/G/A/ E/A/G/A/ | ^C/A/G/A/ C/A/G/A/ C/A/G/A/ | D/A/F/A/ ^C/A/D/A/ B,/G/D/G/ | %93
[K:bass] A,/F/D/F/ G,/E/^C/E/ F,/D/A,/D/ | B,/G/E/G/ A,/F/^D/F/ G,/E/B,/E/ | %95
[K:treble] A,/F/D/F/ A,/F/D/F/ A,/G/E/G/ | G2 F2 z2 |[K:bass] G,/D/B,/D/ G,/D/B,/D/ A,/D/C/D/ | %98
 G,/D/B,/D/ G,/D/B,/D/ G,/D/B,/D/ | G,/E/C/E/ G,/E/C/E/ G,/^C/^A,/=C/ | %100
 G,/D/B,/D/ G,/D/B,/D/ G,/D/B,/D/ | A,/D/C/D/ A,/D/C/D/ G,/D/C/D/ | %102
 G,/D/B,/D/ E,/B,/G,/B,/ B,,/G,/D,/G,/ | C,/A,/E,/A,/ D,/B,/G,/B,/ D,/C/A,/C/ | G,4 z2 :| %105
 G,/D/_B,/D/ G,/D/B,/D/ A,/D/C/D/ | G,/D/_B,/D/ G,/D/B,/D/ G,/D/B,/D/ | %107
 F,/D/A,/D/ F,/D/A,/D/ D,/D/F,/D/ | G,/D/_B,/D/ G,/D/B,/D/ G,/_E/B,/E/ | %109
 A,/=F/C/F/ A,/F/C/F/ A,/F/C/F/ | _B,/=F/D/F/ G,/D/B,/D/ D,/B,/=F,/B,/ | %111
 _E,/C/G,/C/ =F,/D/_B,/D/ F,/_E/C/E/ | _E2 D2 z2 | _A,/=F/C/F/ G,/D/B,/D/ =F,/D/G,/D/ | %114
 _E,/C/G,/C/ D,/B,/=F,/B,/ C,/C/E,/C/ | ^C,/_B,/E,/B,/ D,/B,/G,/B,/ _E,/B,/G,/B,/ | %116
 D,/_B,/G,/B,/ D,/A,/F,/A,/ D,/A,/F,/A,/ | C,/A,/F,/A,/ C,/A,/F,/A,/ C,/A,/F,/A,/ | %118
 _B,,/G,/D,/G,/ B,,/G,/D,/G,/ B,,/G,/D,/G,/ | C,/A,/_E,/A,/ D,/_B,/G,/B,/ D,/C/A,/C/ | C2 _B,2 z2 | %121
 G,/D/B,/D/ G,/D/B,/D/ A,/D/C/D/ | G,/D/B,/D/ G,/D/B,/D/ G,/D/B,/D/ | %123
 G,/E/C/E/ G,/E/C/E/ G,/^C/^A,/C/ | G,/D/B,/D/ G,/D/B,/D/ G,/D/B,/D/ | %125
 A,/D/C/D/ A,/D/C/D/ A,/D/C/D/ | !5!G,/D/!2!B,/D/ E,/!1!B,/!2!G,/B,/ B,,/!1!G,/!4!D,/G,/ | %127
 !3!E,2 G,4 | G,2 F,2 z2 | G,/D/B,/D/ G,/D/B,/D/ A,/D/C/D/ | G,/D/B,/D/ G,/D/B,/D/ G,/D/B,/D/ | %131
 G,/E/C/E/ G,/E/C/E/ G,/^C/^A,/=C/ | G,/D/B,/D/ G,/D/B,/D/ G,/D/B,/D/ | %133
 A,/D/C/D/ A,/D/C/D/ G,/D/C/D/ | G,/D/B,/D/ E,/B,/G,/B,/ B,,/G,/D,/G,/ | %135
 C,/A,/E,/A,/ D,/B,/G,/B,/ D,/C/A,/C/ | [G,B,]2 z4 |[K:treble] A,/=F/C/F/ A,/F/C/F/ B,/G/D/G/ | %138
 C/G/E/G/ C/G/E/G/ C/G/E/G/ | B,/D/C/E/[K:bass] D,/B,/G,/B,/ D,/C/A,/C/ | [G,B,]2 z4 | %141
 A,,/=F,/C,/F,/ B,,/G,/D,/G,/ G,,/G,/B,,/G,/ | C,/G,/E,/G,/ C,/A,/_E,/A,/ ^C,/_B,/=E,/B,/ | %143
 D,/B,/G,/B,/ D,/B,/G,/B,/ D,/C/A,/C/ | [G,B,]2 z3 [D,C] | [G,B,]2 z3 [D,C] | [G,B,] z G,, z z2 |: %147
[K:C][M:1/4] z2 |[M:2/4] [A,C][A,C] [F,A,] z | [G,B,][G,B,] [E,G,] z | F,3 D, | G, z z2 | %152
 [A,C][A,C] [D,F,] z | [G,B,][G,B,] [C,E,] z | [F,A,]3 [G,F] |[M:1/4] [CE]C, :| %156
[K:treble] C/G/E/G/ |[M:2/4] B,/G/D/G/[K:bass] ^F,/D/A,/D/ | G,/D/B,/D/ B,,/G,/D,/G,/ | %159
 C,/A,/E,/A,/ ^C,/A,/E,/A,/ | D, z z2 |[K:treble] [EG][EG] [CE] z | [D^F][DF] [B,D] z | %163
[K:bass] G,3 ^F, | G,G,, z2 | [G,B,]G,, z2 | [G,B,]G,, z2 | z4 | z4 | [A,C][A,C] [F,A,] z | %170
 [G,B,][G,B,] [E,G,] z | F,3 D, | G, z z2 | [A,C][A,C] [D,F,] z | [G,B,][G,B,] [C,E,] z | %175
 [F,A,]3 [G,F] | [CE]C, [CE][CE] | [A,C] z [B,D][B,D] | [^G,B,] z z2 | E/^D/F/E/ z2 | %180
 E/^D/F/E/[K:treble] [CE]2 | [DF]2 [EG]2 | A4 | [FA] z [FA] z |[K:bass] E,/E/^G,/E/ B,/E/G,/E/ | %185
 E,/E/A,/E/ C/E/A,/E/ | E,/E/^G,/E/ B,/E/G,/E/ | E,/E/A,/E/ C/E/A,/E/ | z4 | E/^D/F/E/ z2 | %190
 E/^D/F/E/ [E,C][E,C] | [C,A,] z [D,B,][D,B,] | [B,,^G,] z [G,B,]2 | [A,C][B,D][K:treble] E2 | A4 | %195
 [DF]2[K:bass] E,2 | A,/C/E/C/ E,/B,/D/B,/ | A,/C/E/C/ E,/B,/D/B,/ | A,/C/E/C/ E,/B,/D/B,/ | %199
 A,/C/E/C/ G,/D/F/D/ | !fermata!z2 z2 | [A,C][A,C] [F,A,] z | [G,B,][G,B,] [E,G,] z | F,3 D, | %204
 G, z z2 | [A,C][A,C] [D,F,] z | [G,B,][G,B,] [C,E,] z | [F,A,]3 [G,F] | [CE]C, F,/B,/G,/B,/ | %209
 E,/C/G,/C/ F,/B,/G,/B,/ | E,/C/G,/C/ F,/D/A,/D/ | G,/E/C/E/ G,/F/D/F/ | C/G/E/G/ F,/B,/G,/B,/ | %213
 E,/C/G,/C/ F,/B,/G,/B,/ | E,/C/G,/C/ F,/D/A,/D/ | G,/E/C/E/ G,/F/D/F/ | C/E/G,/C/ E,/G,/C,/E,/ | %217
 G, z G,, z | C/E/G,/C/ E,/G,/C,/E,/ | G, z G,, z | [C,,C,][E,,E,] [G,,G,][E,,E,] | [C,,C,]2 z2 |] %222
V:3
 x8 | x8 | x8 | x2 f/4x/4x/4x/4 x5 | x8 | x8 | x8 | x8 | x8 | x8 | x8 | x8 | x8 | x8 | %14
 g/4x/4x/4x/4x/4x/4 x13/2 | x8 | g/4x/4x/4x/4x/4x/4 x13/2 | x8 | x8 | x8 | x8 | x8 | x8 | x8 | %24
 x/x/x/x/ x/x/x/x/ x/x/x/x/ x/!trill)!x/x/x/ | x8 | x8 | x8 :: x8 | x8 | x8 | x8 | x8 | x8 | x8 | %35
 x8 | x8 | x8 | x8 | x8 | x8 | x8 | x8 | x8 | x2 _b/4x/4x/4x/4 x5 | x8 | x8 | x8 | x8 | x8 | x8 | %51
 x8 | x8 | x8 | x8 | x8 | x8 | x8 | x8 | c/4x/4x/4x/4x/4x/4 x13/2 | x8 | c/4x/4x/4x/4x/4x/4 x13/2 | %62
 x8 | x8 | x8 | x8 | x8 | x8 | x8 | x/x/x/x/ x/x/x/x/ x/x/x/x/ x/!trill)!x/x/x/ | x8 | x8 | x8 :: %73
[K:G][M:3/4] x6 | x6 | x6 | x6 | x6 | x6 | x6 | x6 | x6 | x6 | x6 | x6 | x6 | x6 | x4 F2 | x6 :: %89
 x6 | x6 | x6 | x6 | x6 | x6 | x4 ^c2 | x6 | x6 | x6 | x6 | x6 | x6 | x6 | x4 F2 | x6 :| x6 | x6 | %107
 x6 | x6 | x6 | x6 | x6 | x6 | x6 | x6 | x6 | x6 | x6 | x6 | x6 | x6 | x6 | x6 | x6 | x6 | x6 | %126
 x6 | x6 | x6 | x6 | x6 | x6 | x6 | x6 | x6 | x4 F2 | x6 | x6 | x6 | x6 | x6 | x6 | x6 | x4 F2 | %144
 x6 | x6 | x6 |:[K:C][M:1/4] x2 |[M:2/4] x4 | x4 | x4 | x4 | x4 | x4 | x4 |[M:1/4] x2 :| x2 | %157
[M:2/4] x4 | x4 | x4 | x4 | x4 | x4 | x4 | x4 | x4 | x4 | x4 | x4 | x4 | x4 | x4 | x4 | x4 | x4 | %175
 x4 | x4 | x4 | x4 | x4 | x4 | x4 | x4 | x4 | x4 | x4 | x4 | x4 | x4 | x4 | x4 | x4 | x4 | x4 | %194
 x4 | x4 | x4 | x4 | x4 | x4 | x4 | x4 | x4 | x4 | x4 | x4 | x4 | x4 | x4 | x4 | x4 | x4 | x4 | %213
 x4 | x4 | x4 | x4 | x4 | x4 | x4 | x4 | x4 |] %222
V:4
 x8 | x8 | x8 | x8 | x6[K:bass] x2 | x8 | x8 | x8 | x8 | x8 | x8 | x8 | x8 | x8 | x8 | x8 | x8 | %17
[K:treble] x8 | x8 | x8 | x8 | x8 | x8 | x8 | x8 | x8 | x6[K:bass] x2 | x8 :: x6[K:treble] x2 | %29
 x6[K:bass] x2 | x8 | x8 | x6[K:treble] x2 | x6[K:bass] x2 | x8 | x8 | x9/2[K:treble] x7/2 | x8 | %38
 x9/2[K:bass] x7/2 | x8 | x8 |[K:treble] x8 | x8 | x8 | x8 | x6[K:bass] x2 | x8 | x8 | x8 | x8 | %50
 x8 | x8 | x8 | x8 | x8 | x8 | x8 |[K:treble] x8 | x8 | x8 | x8 | x8 |[K:bass] x8 | x8 | %64
[K:treble] x8 | x8 | x8 |[K:bass] x8 | x8 | x8 | x8 | x8 | x8 ::[K:G][M:3/4] x6 | x6 | x6 | x6 | %77
 x6 | x6 | !5!C,4 E,2 | D,4 x2 | x6 | x6 | x6 | x6 | x6 | x6 | x6 | (C2 B,2) x2 ::[K:treble] x6 | %90
 x6 | x6 | x6 |[K:bass] x6 | x6 |[K:treble] x6 | D4 z2 |[K:bass] x6 | x6 | x6 | x6 | x6 | x6 | x6 | %104
 (C2 B,2) x2 :| x6 | x6 | x6 | x6 | x6 | x6 | x6 | B,4 z2 | x6 | x6 | x6 | x6 | x6 | x6 | x6 | %120
 G,4 z2 | x6 | x6 | x6 | x6 | x6 | x6 | !5!C,4 E,2 | D,4 x2 | x6 | x6 | x6 | x6 | x6 | x6 | x6 | %136
 x6 |[K:treble] x6 | x6 | x2[K:bass] x4 | x6 | x6 | x6 | x6 | x6 | x6 | x6 |:[K:C][M:1/4] x2 | %148
[M:2/4] x4 | x4 | x4 | x4 | x4 | x4 | x4 |[M:1/4] x2 :|[K:treble] x2 |[M:2/4] x2[K:bass] x2 | x4 | %159
 x4 | x4 |[K:treble] x4 | x4 |[K:bass] C,2 D,2 | x4 | x4 | x4 | x4 | x4 | x4 | x4 | x4 | x4 | x4 | %174
 x4 | x4 | x4 | x4 | x4 | x4 | x2[K:treble] x2 | x4 | F^C DE | x4 |[K:bass] x4 | x4 | x4 | x4 | %188
 x4 | x4 | x4 | x4 | x4 | x2[K:treble] C^C | DE FE | x2[K:bass] CB, | x4 | x4 | x4 | x4 | x4 | x4 | %202
 x4 | x4 | x4 | x4 | x4 | x4 | x4 | x4 | x4 | x4 | x4 | x4 | x4 | x4 | x4 | x4 | x4 | x4 | x4 | %221
 x4 |] %222

